src/assets/images/building1.svg

<svg width="957" height="1414" viewBox="0 0 957 1414" fill="none" xmlns="http://www.w3.org/2000/svg">
<path d="M209.01 130.861V306.116H322.808L448.107 343.98V222.99L209.01 130.861Z" fill="#434747"/>
<path d="M706.158 276.114H592.361V100.855H519.795V0H372.384V100.855H264.244V181.307H209.032V130.827H117.539V181.307H49.7105V276.114H0V1413.43H706.158V276.114Z" fill="#494D4D"/>
<path d="M831.457 313.973V192.987L668.57 130.181V68.5159L519.795 0.00390625V100.859H592.36V276.114H706.158V1413.43H956.757V351.837L831.457 313.973Z" fill="#798080"/>
<path d="M592.361 100.854V276.113H706.159L831.459 313.973V192.986L592.361 100.854Z" fill="#616666"/>
<path d="M592.357 100.854H264.207V276.11H592.357V100.854Z" fill="#4F5454"/>
<path d="M264.208 181.307H49.7109V276.11H264.208V181.307Z" fill="#464A4A"/>
<path d="M167.327 332.44H48.4473V384.45H167.327V332.44Z" fill="#434747"/>
<path d="M330.788 332.44H211.908V384.45H330.788V332.44Z" fill="#434747"/>
<path d="M494.247 332.44H375.367V384.45H494.247V332.44Z" fill="#434747"/>
<path d="M657.708 332.44H538.828V384.45H657.708V332.44Z" fill="#434747"/>
<path d="M167.327 416.648H48.4473V468.658H167.327V416.648Z" fill="#434747"/>
<path d="M330.788 416.648H211.908V468.658H330.788V416.648Z" fill="#434747"/>
<path d="M494.247 416.648H375.367V468.658H494.247V416.648Z" fill="#434747"/>
<path d="M657.708 416.648H538.828V468.658H657.708V416.648Z" fill="#434747"/>
<path d="M167.327 500.856H48.4473V552.866H167.327V500.856Z" fill="#434747"/>
<path d="M330.788 500.856H211.908V552.866H330.788V500.856Z" fill="#434747"/>
<path d="M494.247 500.856H375.367V552.866H494.247V500.856Z" fill="#434747"/>
<path d="M657.708 500.856H538.828V552.866H657.708V500.856Z" fill="#434747"/>
<path d="M167.327 585.061H48.4473V637.071H167.327V585.061Z" fill="#434747"/>
<path d="M330.788 585.061H211.908V637.071H330.788V585.061Z" fill="#434747"/>
<path d="M494.247 585.061H375.367V637.071H494.247V585.061Z" fill="#434747"/>
<path d="M657.708 585.061H538.828V637.071H657.708V585.061Z" fill="#434747"/>
<path d="M167.327 669.269H48.4473V721.279H167.327V669.269Z" fill="#434747"/>
<path d="M330.788 669.269H211.908V721.279H330.788V669.269Z" fill="#434747"/>
<path d="M494.247 669.269H375.367V721.279H494.247V669.269Z" fill="#434747"/>
<path d="M657.708 669.269H538.828V721.279H657.708V669.269Z" fill="#434747"/>
<path d="M167.327 753.477H48.4473V805.487H167.327V753.477Z" fill="#434747"/>
<path d="M330.788 753.477H211.908V805.487H330.788V753.477Z" fill="#434747"/>
<path d="M494.247 753.477H375.367V805.487H494.247V753.477Z" fill="#434747"/>
<path d="M657.708 753.477H538.828V805.487H657.708V753.477Z" fill="#434747"/>
<path d="M167.327 837.681H48.4473V889.691H167.327V837.681Z" fill="#434747"/>
<path d="M330.788 837.681H211.908V889.691H330.788V837.681Z" fill="#434747"/>
<path d="M494.247 837.681H375.367V889.691H494.247V837.681Z" fill="#434747"/>
<path d="M657.708 837.681H538.828V889.691H657.708V837.681Z" fill="#434747"/>
<path d="M167.327 921.889H48.4473V973.899H167.327V921.889Z" fill="#434747"/>
<path d="M330.788 921.889H211.908V973.899H330.788V921.889Z" fill="#434747"/>
<path d="M494.247 921.889H375.367V973.899H494.247V921.889Z" fill="#434747"/>
<path d="M657.708 921.889H538.828V973.899H657.708V921.889Z" fill="#434747"/>
<path d="M167.327 1006.1H48.4473V1058.11H167.327V1006.1Z" fill="#434747"/>
<path d="M330.788 1006.1H211.908V1058.11H330.788V1006.1Z" fill="#434747"/>
<path d="M494.247 1006.1H375.367V1058.11H494.247V1006.1Z" fill="#434747"/>
<path d="M657.708 1006.1H538.828V1058.11H657.708V1006.1Z" fill="#434747"/>
<path d="M167.327 1090.3H48.4473V1142.31H167.327V1090.3Z" fill="#434747"/>
<path d="M330.788 1090.3H211.908V1142.31H330.788V1090.3Z" fill="#434747"/>
<path d="M494.247 1090.3H375.367V1142.31H494.247V1090.3Z" fill="#434747"/>
<path d="M657.708 1090.3H538.828V1142.31H657.708V1090.3Z" fill="#434747"/>
<path d="M167.327 1174.51H48.4473V1226.52H167.327V1174.51Z" fill="#434747"/>
<path d="M330.788 1174.51H211.908V1226.52H330.788V1174.51Z" fill="#434747"/>
<path d="M494.247 1174.51H375.367V1226.52H494.247V1174.51Z" fill="#434747"/>
<path d="M657.708 1174.51H538.828V1226.52H657.708V1174.51Z" fill="#434747"/>
<path d="M167.327 1258.72H48.4473V1310.73H167.327V1258.72Z" fill="#434747"/>
<path d="M330.788 1258.72H211.908V1310.73H330.788V1258.72Z" fill="#434747"/>
<path d="M494.247 1258.72H375.367V1310.73H494.247V1258.72Z" fill="#434747"/>
<path d="M657.708 1258.72H538.828V1310.73H657.708V1258.72Z" fill="#434747"/>
<path d="M917.78 433.05L757.188 384.699V332.689L917.78 381.04V433.05Z" fill="#545959"/>
<path d="M917.78 517.258L757.188 468.907V416.897L917.78 465.248V517.258Z" fill="#545959"/>
<path d="M917.78 601.462L757.188 553.112V501.102L917.78 549.452V601.462Z" fill="#545959"/>
<path d="M917.78 685.67L757.188 637.32V585.31L917.78 633.66V685.67Z" fill="#545959"/>
<path d="M917.78 769.878L757.188 721.528V669.518L917.78 717.868V769.878Z" fill="#545959"/>
<path d="M917.78 854.082L757.188 805.732V753.722L917.78 802.072V854.082Z" fill="#545959"/>
<path d="M917.78 938.29L757.188 889.94V837.93L917.78 886.28V938.29Z" fill="#545959"/>
<path d="M917.78 1022.5L757.188 974.148V922.138L917.78 970.488V1022.5Z" fill="#545959"/>
<path d="M917.78 1106.7L757.188 1058.35V1006.34L917.78 1054.69V1106.7Z" fill="#545959"/>
<path d="M917.78 1190.91L757.188 1142.56V1090.55L917.78 1138.9V1190.91Z" fill="#545959"/>
<path d="M917.78 1275.12L757.188 1226.77V1174.76L917.78 1223.11V1275.12Z" fill="#545959"/>
<path d="M917.78 1359.32L757.188 1310.97V1258.96L917.78 1307.31V1359.32Z" fill="#545959"/>
<path d="M541.592 199.629H314.977V230.278H541.592V199.629Z" fill="#494D4D"/>
<path d="M541.592 146.69H314.977V177.339H541.592V146.69Z" fill="#494D4D"/>
<path d="M807.347 306.636V267.74L621.363 199.629V276.151L706.158 276.113L807.347 306.636Z" fill="#545959"/>
<path d="M807.347 216.194L621.363 146.69V177.339L807.347 245.914V216.194Z" fill="#545959"/>
</svg>

<?xml version="1.0" encoding="UTF-8"?>
<svg viewBox="0 0 957 1414" xmlns="http://www.w3.org/2000/svg">
<path d="m209.01 130.86v175.26h113.8l125.3 37.864v-120.99l-239.1-92.129z" fill="#464646"/>
<path d="m706.16 276.11h-113.8v-175.26h-72.566v-100.86h-147.41v100.86h-108.14v80.452h-55.212v-50.48h-91.493v50.48h-67.828v94.807h-49.71v1137.3h706.16v-1137.3z" fill="#4C4C4C"/>
<path d="m831.46 313.97v-120.99l-162.89-62.806v-61.665l-148.78-68.512v100.86h72.565v175.26h113.8v1137.3h250.6v-1061.6l-125.3-37.864z" fill="#848484"/>
<path d="m592.36 100.85v175.26h113.8l125.3 37.86v-120.99l-239.1-92.132z" fill="#676767"/>
<path d="m592.36 100.85h-328.15v175.26h328.15v-175.26z" fill="#535353"/>
<path d="m264.21 181.31h-214.5v94.803h214.5v-94.803z" fill="#484848"/>
<path d="m167.33 332.44h-118.88v52.01h118.88v-52.01z" fill="#464646"/>
<path d="m330.79 332.44h-118.88v52.01h118.88v-52.01z" fill="#464646"/>
<path d="m494.25 332.44h-118.88v52.01h118.88v-52.01z" fill="#464646"/>
<path d="m657.71 332.44h-118.88v52.01h118.88v-52.01z" fill="#464646"/>
<path d="m167.33 416.65h-118.88v52.01h118.88v-52.01z" fill="#464646"/>
<path d="m330.79 416.65h-118.88v52.01h118.88v-52.01z" fill="#464646"/>
<path d="m494.25 416.65h-118.88v52.01h118.88v-52.01z" fill="#464646"/>
<path d="m657.71 416.65h-118.88v52.01h118.88v-52.01z" fill="#464646"/>
<path d="m167.33 500.86h-118.88v52.01h118.88v-52.01z" fill="#464646"/>
<path d="m330.79 500.86h-118.88v52.01h118.88v-52.01z" fill="#464646"/>
<path d="m494.25 500.86h-118.88v52.01h118.88v-52.01z" fill="#464646"/>
<path d="m657.71 500.86h-118.88v52.01h118.88v-52.01z" fill="#464646"/>
<path d="m167.33 585.06h-118.88v52.01h118.88v-52.01z" fill="#464646"/>
<path d="m330.79 585.06h-118.88v52.01h118.88v-52.01z" fill="#464646"/>
<path d="m494.25 585.06h-118.88v52.01h118.88v-52.01z" fill="#464646"/>
<path d="m657.71 585.06h-118.88v52.01h118.88v-52.01z" fill="#464646"/>
<path d="m167.33 669.27h-118.88v52.01h118.88v-52.01z" fill="#464646"/>
<path d="m330.79 669.27h-118.88v52.01h118.88v-52.01z" fill="#464646"/>
<path d="m494.25 669.27h-118.88v52.01h118.88v-52.01z" fill="#464646"/>
<path d="m657.71 669.27h-118.88v52.01h118.88v-52.01z" fill="#464646"/>
<path d="m167.33 753.48h-118.88v52.01h118.88v-52.01z" fill="#464646"/>
<path d="m330.79 753.48h-118.88v52.01h118.88v-52.01z" fill="#464646"/>
<path d="m494.25 753.48h-118.88v52.01h118.88v-52.01z" fill="#464646"/>
<path d="m657.71 753.48h-118.88v52.01h118.88v-52.01z" fill="#464646"/>
<path d="m167.33 837.68h-118.88v52.01h118.88v-52.01z" fill="#464646"/>
<path d="m330.79 837.68h-118.88v52.01h118.88v-52.01z" fill="#464646"/>
<path d="m494.25 837.68h-118.88v52.01h118.88v-52.01z" fill="#464646"/>
<path d="m657.71 837.68h-118.88v52.01h118.88v-52.01z" fill="#464646"/>
<path d="m167.33 921.89h-118.88v52.01h118.88v-52.01z" fill="#464646"/>
<path d="m330.79 921.89h-118.88v52.01h118.88v-52.01z" fill="#464646"/>
<path d="m494.25 921.89h-118.88v52.01h118.88v-52.01z" fill="#464646"/>
<path d="m657.71 921.89h-118.88v52.01h118.88v-52.01z" fill="#464646"/>
<path d="m167.33 1006.1h-118.88v52.01h118.88v-52.01z" fill="#464646"/>
<path d="m330.79 1006.1h-118.88v52.01h118.88v-52.01z" fill="#464646"/>
<path d="m494.25 1006.1h-118.88v52.01h118.88v-52.01z" fill="#464646"/>
<path d="m657.71 1006.1h-118.88v52.01h118.88v-52.01z" fill="#464646"/>
<path d="m167.33 1090.3h-118.88v52.01h118.88v-52.01z" fill="#464646"/>
<path d="m330.79 1090.3h-118.88v52.01h118.88v-52.01z" fill="#464646"/>
<path d="m494.25 1090.3h-118.88v52.01h118.88v-52.01z" fill="#464646"/>
<path d="m657.71 1090.3h-118.88v52.01h118.88v-52.01z" fill="#464646"/>
<path d="m167.33 1174.5h-118.88v52.01h118.88v-52.01z" fill="#464646"/>
<path d="m330.79 1174.5h-118.88v52.01h118.88v-52.01z" fill="#464646"/>
<path d="m494.25 1174.5h-118.88v52.01h118.88v-52.01z" fill="#464646"/>
<path d="m657.71 1174.5h-118.88v52.01h118.88v-52.01z" fill="#464646"/>
<path d="m167.33 1258.7h-118.88v52.01h118.88v-52.01z" fill="#464646"/>
<path d="m330.79 1258.7h-118.88v52.01h118.88v-52.01z" fill="#464646"/>
<path d="m494.25 1258.7h-118.88v52.01h118.88v-52.01z" fill="#464646"/>
<path d="m657.71 1258.7h-118.88v52.01h118.88v-52.01z" fill="#464646"/>
<path d="m917.78 433.05-160.59-48.351v-52.01l160.59 48.351v52.01z" fill="#585858"/>
<path d="m917.78 517.26-160.59-48.351v-52.01l160.59 48.351v52.01z" fill="#585858"/>
<path d="m917.78 601.46-160.59-48.35v-52.01l160.59 48.35v52.01z" fill="#585858"/>
<path d="m917.78 685.67-160.59-48.35v-52.01l160.59 48.35v52.01z" fill="#585858"/>
<path d="m917.78 769.88-160.59-48.35v-52.01l160.59 48.35v52.01z" fill="#585858"/>
<path d="m917.78 854.08-160.59-48.35v-52.01l160.59 48.35v52.01z" fill="#585858"/>
<path d="m917.78 938.29-160.59-48.35v-52.01l160.59 48.35v52.01z" fill="#585858"/>
<path d="m917.78 1022.5-160.59-48.352v-52.01l160.59 48.35v52.012z" fill="#585858"/>
<path d="m917.78 1106.7-160.59-48.35v-52.01l160.59 48.35v52.01z" fill="#585858"/>
<path d="m917.78 1190.9-160.59-48.35v-52.01l160.59 48.35v52.01z" fill="#585858"/>
<path d="m917.78 1275.1-160.59-48.35v-52.01l160.59 48.35v52.01z" fill="#585858"/>
<path d="m917.78 1359.3-160.59-48.35v-52.01l160.59 48.35v52.01z" fill="#585858"/>
<path d="m541.59 199.63h-226.62v30.649h226.62v-30.649z" fill="#4C4C4C"/>
<path d="m541.59 146.69h-226.62v30.649h226.62v-30.649z" fill="#4C4C4C"/>
<path d="m807.35 306.64v-38.896l-185.98-68.111v76.522l84.795-0.038 101.19 30.523z" fill="#585858"/>
<path d="m807.35 216.19-185.98-69.504v30.649l185.98 68.575v-29.72z" fill="#585858"/>
</svg>
